X: 57
T:Rattling Roaring Willie
G:jig
M:9/8
L:1/8
Q:3/8=120
K:GMix
d|B2G GAG Bde|f2c AFA c2d|\
  B2G GAG Bde|gfg B2c d2e|
  gfg dBG Bde|f2c AFA c2e|\
  dBd e2d Bdg|BGB AFA G2|]

Transpositions of mixolydian-mode scales:

